svg/color/mft.svg

<?xml version="1.0" encoding="UTF-8"?>
<svg width="32px" height="32px" viewBox="0 0 32 32" version="1.1" xmlns="http://www.w3.org/2000/svg" xmlns:xlink="http://www.w3.org/1999/xlink">
    <!-- Generator: Sketch 53 (72520) - https://sketchapp.com -->
    <title>svg/color/mft</title>
    <desc>Created with Sketch.</desc>
    <g id="color/mft" stroke="none" stroke-width="1" fill="none" fill-rule="evenodd">
        <g id="Group"></g>
        <circle id="Oval" fill="#DA1157" fill-rule="nonzero" cx="16" cy="16" r="16"></circle>
        <path d="M20.9850711,19.168481 C22.656501,19.168481 24.0115103,17.8134717 24.0115103,16.142206 C24.0115103,14.4707761 22.656501,13.115931 20.9850711,13.115931 C19.3136412,13.115931 17.9586319,14.4707761 17.9586319,16.142206 C17.9586319,17.8134717 19.3136412,19.168481 20.9850711,19.168481 Z M20.9850711,9.16289011 C24.8397539,9.16289011 27.9645512,12.2876874 27.9645512,16.142206 C27.9645512,19.9967247 24.8397539,23.121522 20.9850711,23.121522 C19.0225079,23.121522 17.2502569,22.3103555 15.9821114,21.0064135 C17.2046083,19.7492697 17.9586319,18.0341616 17.9586319,16.142206 C17.9586319,14.2502505 17.2046083,12.5353066 15.9821114,11.2781627 C17.2502569,9.97405661 19.0225079,9.16289011 20.9850711,9.16289011 Z M10.9793159,19.168481 C12.6507458,19.168481 14.0055909,17.8134717 14.0055909,16.142206 C14.0055909,14.4707761 12.6507458,13.115931 10.9793159,13.115931 C9.30788602,13.115931 7.95287673,14.4707761 7.95287673,16.142206 C7.95287673,17.8134717 9.30788602,19.168481 10.9793159,19.168481 Z M15.9821114,11.2781627 C14.7597787,12.5353066 14.0057551,14.2502505 14.0057551,16.142206 C14.0057551,18.0341616 14.7597787,19.7492697 15.9821114,21.0064135 C14.7141301,22.3103555 12.9418791,23.121522 10.9793159,23.121522 C7.12463304,23.121522 4,19.9967247 4,16.142206 C4,12.2876874 7.12463304,9.16289011 10.9793159,9.16289011 C12.9418791,9.16289011 14.7141301,9.97405661 15.9821114,11.2781627 Z M14.0052625,16.1430271 C14.0052625,18.0349826 14.7591219,19.7499265 15.9816188,21.0070704 C17.2041157,19.7499265 17.957975,18.0349826 17.957975,16.1430271 C17.957975,14.2509073 17.2041157,12.5359634 15.9816188,11.2789838 C14.7591219,12.5359634 14.0052625,14.2509073 14.0052625,16.1430271 Z" id="Combined-Shape" fill="#FFFFFF" fill-rule="nonzero"></path>
    </g>
</svg>

<svg width="32" height="32" viewBox="0 0 32 32" xmlns="http://www.w3.org/2000/svg"><g fill="none"><circle fill="#DA1157" cx="16" cy="16" r="16"/><path d="M20.985 19.168a3.026 3.026 0 1 0 0-6.052 3.026 3.026 0 0 0 0 6.052zm0-10.005a6.98 6.98 0 1 1-5.003 11.843 6.955 6.955 0 0 0 1.977-4.864 6.954 6.954 0 0 0-1.977-4.864 6.957 6.957 0 0 1 5.003-2.115zM10.98 19.168a3.026 3.026 0 1 0 0-6.052 3.026 3.026 0 0 0 0 6.052zm5.003-7.89a6.955 6.955 0 0 0-1.976 4.864c0 1.892.754 3.607 1.976 4.864a6.98 6.98 0 1 1 0-9.728zm-1.977 4.865c0 1.892.754 3.607 1.977 4.864a6.954 6.954 0 0 0 1.976-4.864 6.954 6.954 0 0 0-1.976-4.864 6.954 6.954 0 0 0-1.977 4.864z" fill="#FFF"/></g></svg>
